icons/clockwise-line.svg

<svg xmlns="http://www.w3.org/2000/svg" width="24" height="24" fill="none"><g clip-path="url(#a)"><g><path fill="#121212" d="M20 10.586L21.828 8.757L23.243 10.172L19 14.414L14.757 10.172L16.172 8.757L18 10.586V8C18 7.20435 17.6839 6.44129 17.1213 5.87868C16.5587 5.31607 15.7956 5 15 5H11V3H15C16.3261 3 17.5979 3.52678 18.5355 4.46447C19.4732 5.40215 20 6.67392 20 8V10.586ZM13 9C13.2652 9 13.5196 9.10536 13.7071 9.29289C13.8946 9.48043 14 9.73478 14 10V20C14 20.2652 13.8946 20.5196 13.7071 20.7071C13.5196 20.8946 13.2652 21 13 21H3C2.73478 21 2.48043 20.8946 2.29289 20.7071C2.10536 20.5196 2 20.2652 2 20V10C2 9.73478 2.10536 9.48043 2.29289 9.29289C2.48043 9.10536 2.73478 9 3 9H13ZM12 11H4V19H12V11Z"/></g></g><defs><clipPath id="a"><rect width="24" height="24" fill="white"/></clipPath></defs></svg>

<svg width="24" height="24" fill="none" xmlns="http://www.w3.org/2000/svg"><g clip-path="url(#a)"><path d="m20 10.586 1.828-1.829 1.415 1.415L19 14.414l-4.243-4.242 1.415-1.415L18 10.586V8a3 3 0 0 0-3-3h-4V3h4a5 5 0 0 1 5 5v2.586ZM13 9a1 1 0 0 1 1 1v10a1 1 0 0 1-1 1H3a1 1 0 0 1-1-1V10a1 1 0 0 1 1-1h10Zm-1 2H4v8h8v-8Z" /></g><defs><clipPath id="a"><path fill="#fff" d="M0 0h24v24H0z"/></clipPath></defs></svg>
